X:1
T:Pomfret
T:A minor                    Merit Woodruff, 1800
T:Transcribed from Devotional Harmony, 1800.
T:Isaac Watts, 1719 (Psalm 87, Part 7)                 88. 88. 88.
%%score [ 1 2 3 4 ]
L:1/8
Q:1/4=110
M:4/4
K:C
V:1 treble nm="Tr." snm="Tr."
V:2 treble nm="C." snm="C."
V:3 treble-8 nm="T." snm="T."
V:4 bass nm="B." snm="B."
V:1
"_1. Think, migh–ty  God,       on  fee    –   ble man;  How few his hours! how short             his span! Short from the cradle to           the  grave;                                    Who\n2. For  ev    –     er   bles    –   sed  be        the Lord, Who gives his saints  a    long              re–ward   For all their toil, reproach,      and  pain:                                      Let" A8 | %1
 (e3 d c2) B2 | (c3 d e2) c2 | (d3 c B2) A2 | G6 cd | e2 e2 c2 B2 | (AcBA G2) A2 | B6 B2 | %8
 e2 c2 B2 A2 | G6 B2 | A6 z2 | z8 | z4 z2 A2 | %13
"_1. can secure his vital breath Against the bold   demands of  death,      With    skill  to  fly,                 or  power  to  save,        With  skill  to  fly,  or       power              to   save?\n2. all  below  and  all  above  Join to proclaim thy wondrous  love,        And     each re – peat            their  loud  A–men,        And  each  repeat  their   loud                A – men." e2 e2 e2 c2 | %14
 B2 G2 G2 E2 | A2 c2 (B3 A | G2) G2 c2 A2 | B6 c2 | A2 AG (A2 df | e2) dc B2 A2 | B6 B2 | %21
 c2 cd e2 d2 | (c3 B A2) G2 | A8 |] %24
V:2
 E8 | E6 ^G2 | (E4 A2) G2 | (F4 D2) F2 | E6 E2 | G2 A2 G2 GF | E6 FD | E6 G2 | C2 E2 F2 D2 | %9
 (G3 F E2) E2 | E6 z2 | z8 | z8 | %13
 z4 z2"_1. Who can secure his vital breath        Against the bold demands of  death,        With   skill  to  fly,  or power to save, With skill to fly, or      power               to  save?\n2.  Let  all  below  and  all  above          Join to proclaim thy wondrous love,          And  each  repeat their  loud Amen, And each repeat their  loud                A–men." E2 | %14
 G2 G2 G2 G2 | E2 E2 D4- | D2 E2 A2 Ac | B3 A G2 G2 | A6 A2 | E2 F2 G2 E2 | G2 AG E2 E2 | %21
 A2 A2 G2 G>A | (EFGF E2) E2 | E8 |] %24
V:3
"_1. Think, migh–ty  God,       on  fee    –   ble man;  How few his hours! how short             his span! Short from the cradle to           the  grave;              Who can secure his\n2. For  ev    –     er   bles    –   sed  be        the Lord, Who gives his saints  a    long              re–ward   For all their toil, reproach,      and  pain:                Let  all  below  and" A8 | %1
 (c3 d c2) d2 | (e3 d c2) G2 | (A3 c d2) c2 | B6 B2 | c2 c2 e2 ed | (c2 dc B2) cd | e6 c2 | %8
 g2 e2 d2 c2 | B6 G2 | A6 z2 | z4 z2 E2 | A2 A2 A2 Ac | %13
"_1. vi     –    tal   breath  Against the bold       demands  of   death,       With  skill  to    fly,                or  power  to   save,          With  skill  to  fly,  or     power             to   save?\n2. all          a  –  bove    Join to  proclaim       thy  wondrous  love,       And   each  re – peat            their  loud  A – men,         And   each repeat  their  loud              A – men." (G3 A G2) c2 | %14
 B6 B2 | c2 c2 (d3 e | d2) B2 c2 cd | e6 dc | d2 d2 (d3 B | c2) BA G2 AG | E6 G2 | A2 cB c2 d2 | %22
 (e>fed c2) B2 | A8 |] %24
V:4
 A,8 | A,6 ^G,2 | A,6 E,2 | D,6 D,2 | E,6 E,2 | C,2 A,,2 C,2 E,/F,/G, | (A,2 B,A, G,2) F,2 | %7
 E,6 E,2 | C,2 C,2 D,2 F,D, | E,6 E,2 | %10
 A,,6"_1. Who can secure his vi   –   tal \n2.  Let   all  below and all       a –" E,2 | %11
 C,2 C,2 C,2 C,2 | D,6 D,2 | %13
"_1. breath                        Against the bold       demands  of   death,       With  skill  to    fly,                or  power  to   save,          With  skill  to  fly,  or     power             to   save?\n2. –  bove                       Join to  proclaim       thy  wondrous  love,       And   each  re – peat            their  loud  A – men,         And   each repeat  their  loud              A – men." E,8- | %14
 E,6 E,2 | %15
"___________________________________________________\nEdited by B. C. Johnston, 2018\nMeasure 2, Counter: second note changed from G to G#, like Bass." C,2 C,2 G,4- | %16
 G,2 G,2 A,2 A,2 | E,6 G,2 | D,2 D,2 (D,4 | C,2) D,2 E,2 E,2 | E,6 G,2 | A,2 A,B, C2 G,2 | %22
 (E,D,C,D, E,2) E,2 | A,,8 |] %24

